img/personalcard.svg

<svg width="40" height="40" viewBox="0 0 40 40" fill="none" xmlns="http://www.w3.org/2000/svg">
<g id="vuesax/bold/personalcard">
<g id="personalcard">
<path id="Vector" d="M30.0002 5H10.0002C6.31683 5 3.3335 7.96667 3.3335 11.6167V28.3833C3.3335 32.0333 6.31683 35 10.0002 35H30.0002C33.6835 35 36.6668 32.0333 36.6668 28.3833V11.6167C36.6668 7.96667 33.6835 5 30.0002 5ZM14.1668 11.95C16.2835 11.95 18.0168 13.6833 18.0168 15.8C18.0168 17.9167 16.2835 19.65 14.1668 19.65C12.0502 19.65 10.3168 17.9167 10.3168 15.8C10.3168 13.6833 12.0502 11.95 14.1668 11.95ZM20.6168 27.7667C20.4668 27.9333 20.2335 28.0333 20.0002 28.0333H8.3335C8.10016 28.0333 7.86683 27.9333 7.71683 27.7667C7.56683 27.6 7.4835 27.3667 7.50016 27.1333C7.7835 24.3333 10.0168 22.1167 12.8168 21.85C13.7002 21.7667 14.6168 21.7667 15.5002 21.85C18.3002 22.1167 20.5502 24.3333 20.8168 27.1333C20.8502 27.3667 20.7668 27.6 20.6168 27.7667ZM31.6668 27.9167H28.3335C27.6502 27.9167 27.0835 27.35 27.0835 26.6667C27.0835 25.9833 27.6502 25.4167 28.3335 25.4167H31.6668C32.3502 25.4167 32.9168 25.9833 32.9168 26.6667C32.9168 27.35 32.3502 27.9167 31.6668 27.9167ZM31.6668 21.25H25.0002C24.3168 21.25 23.7502 20.6833 23.7502 20C23.7502 19.3167 24.3168 18.75 25.0002 18.75H31.6668C32.3502 18.75 32.9168 19.3167 32.9168 20C32.9168 20.6833 32.3502 21.25 31.6668 21.25ZM31.6668 14.5833H23.3335C22.6502 14.5833 22.0835 14.0167 22.0835 13.3333C22.0835 12.65 22.6502 12.0833 23.3335 12.0833H31.6668C32.3502 12.0833 32.9168 12.65 32.9168 13.3333C32.9168 14.0167 32.3502 14.5833 31.6668 14.5833Z" fill="white"/>
</g>
</g>
</svg>

<svg xmlns="http://www.w3.org/2000/svg" width="40" height="40" fill="none"><path fill="#fff" d="M30 5H10c-3.683 0-6.666 2.967-6.666 6.617v16.766C3.334 32.033 6.317 35 10 35h20c3.684 0 6.667-2.967 6.667-6.617V11.617C36.667 7.967 33.684 5 30 5m-15.833 6.95a3.86 3.86 0 0 1 3.85 3.85 3.86 3.86 0 0 1-3.85 3.85 3.86 3.86 0 0 1-3.85-3.85 3.86 3.86 0 0 1 3.85-3.85m6.45 15.817a.84.84 0 0 1-.617.266H8.334a.84.84 0 0 1-.617-.266.87.87 0 0 1-.217-.634 5.914 5.914 0 0 1 5.317-5.283c.883-.083 1.8-.083 2.683 0 2.8.267 5.05 2.483 5.317 5.283a.79.79 0 0 1-.2.634m11.05.15h-3.334a1.26 1.26 0 0 1-1.25-1.25c0-.684.567-1.25 1.25-1.25h3.334c.683 0 1.25.566 1.25 1.25a1.26 1.26 0 0 1-1.25 1.25m0-6.667H25A1.26 1.26 0 0 1 23.75 20c0-.683.567-1.25 1.25-1.25h6.667c.683 0 1.25.567 1.25 1.25a1.26 1.26 0 0 1-1.25 1.25m0-6.667h-8.333a1.26 1.26 0 0 1-1.25-1.25c0-.683.566-1.25 1.25-1.25h8.333c.683 0 1.25.567 1.25 1.25 0 .684-.567 1.25-1.25 1.25"/></svg>
